app/src/main/assets/symbols/shopping/motorcycle.svg

<?xml version="1.0" encoding="UTF-8" standalone="no"?>
<svg xmlns:dc="http://purl.org/dc/elements/1.1/" xmlns:cc="http://creativecommons.org/ns#" xmlns:rdf="http://www.w3.org/1999/02/22-rdf-syntax-ns#" xmlns:svg="http://www.w3.org/2000/svg" xmlns="http://www.w3.org/2000/svg" id="svg2" viewBox="0 0 14 14" height="14" width="14" version="1.1">
  <metadata id="metadata8">
    <rdf:RDF>
      <cc:Work rdf:about="">
        <dc:format>image/svg+xml</dc:format>
        <dc:type rdf:resource="http://purl.org/dc/dcmitype/StillImage"/>
        <dc:title/>
      </cc:Work>
    </rdf:RDF>
  </metadata>
  <defs id="defs6"/>
  <rect width="14" height="14" id="canvas" style="visibility:hidden;fill:none;stroke:none"/>
  <path d="m 11.656176,5.8256161 c 0.298589,0.2100571 0.472688,0.4414767 0.557618,0.7348004 0.02791,0.096441 0.02967,0.116247 0.03043,0.3145082 6.72e-4,0.1824775 -0.0013,0.2303319 -0.02282,0.331662 -0.04231,0.1988789 -0.12061,0.4210966 -0.212909,0.6147172 l -0.04055,0.088638 -0.139406,0.00864 C 11.321401,7.9483119 10.913322,8.0512522 10.558686,8.241664 9.7980817,8.6500367 9.3203179,9.4172822 9.0835261,10.60618 l -0.020273,0.09435 -0.098852,0.102933 c -0.054816,0.05578 -0.1286446,0.122894 -0.1647515,0.148676 -0.3281323,0.234183 -0.7990935,0.374318 -1.4675559,0.440309 -0.3000935,0.02968 -0.501193,0.0355 -1.4700912,0.04575 -0.5680876,0.0061 -1.0359562,0.0139 -1.0392018,0.01717 -0.00311,0.0032 -0.025085,0.0058 -0.048159,0.0058 -0.0503,0 -0.046861,0.02197 -0.01774,-0.240169 0.04498,-0.405175 0.039971,-0.875322 -0.012732,-1.215165 C 4.592715,9.0282302 4.0568749,8.3864584 3.1473456,8.0929715 2.7477326,7.9640179 2.3961554,7.9175192 1.7963837,7.9071256 L 1.413653,7.8984856 1.3883094,7.8698956 C 1.2604682,7.7126881 1.1949808,7.4722832 1.2311615,7.2894908 1.2482657,7.2031656 1.3073257,7.0781645 1.3578983,7.0235909 L 2.4352965,5.7884036 c 2.3360181,-0.00835 2.9594838,0.00427 5.1909411,0.026406 0.1239596,0.032996 0.6885446,1.3087067 0.747585,1.4146142 0.031912,0.057253 0.076189,0.1835844 0.086182,0.2458858 0.00402,0.02531 0.00844,0.045746 0.010125,0.045746 0.015029,0 0.2232482,-0.093484 0.3295027,-0.1486753 C 9.083967,7.2246893 9.4406996,6.645953 9.6210797,6.4088852 9.7928469,4.1278438 6.9779187,-1.927108 11.656179,5.8256163 Z M 11.54719,8.1786966 c 0.679982,-0.052948 1.349382,0.2215749 1.824941,0.7490968 0.661149,0.7333838 0.816608,1.8298176 0.387799,2.7333476 -0.356552,0.751284 -1.061293,1.258429 -1.850286,1.332365 -0.296082,0.02774 -0.651004,-0.01504 -0.930213,-0.114375 C 10.288966,12.633514 9.7515777,12.064052 9.5270851,11.340909 9.3199378,10.673656 9.3993216,9.9309859 9.7399919,9.3423632 10.133078,8.6631724 10.793349,8.2373763 11.54719,8.1786966 Z m -9.2539672,0.0057 c 0.2777804,3.059e-4 0.3564089,0.00923 0.5576214,0.062902 0.9073154,0.2421499 1.5833539,1.0369036 1.7134153,2.0128424 0.023943,0.180069 0.024164,0.495889 0,0.66618 C 4.448839,11.739795 3.9762622,12.413657 3.2766624,12.767615 3.0547002,12.879911 2.7757949,12.964519 2.5238745,12.99349 2.379068,13.01014 2.067452,12.99789 1.9155611,12.97061 0.93994444,12.794509 0.20022497,12.0164 0.02725513,10.983501 -0.00555125,10.788179 -0.00952264,10.429781 0.01960008,10.234405 0.09804804,9.7090502 0.32013721,9.2525892 0.67353649,8.8820232 1.0161487,8.5227701 1.4205438,8.3002792 1.9155078,8.2044093 2.0029748,8.1873113 2.0788745,8.1841203 2.2931694,8.1843983 Z m 9.3401452,0.8262966 c -0.449661,0.02271 -0.856262,0.251053 -1.130448,0.631871 -0.08549,0.118735 -0.200319,0.3597628 -0.238257,0.5003518 -0.15436,0.572038 -0.0045,1.164114 0.39794,1.575392 0.101934,0.104152 0.253337,0.22211 0.36245,0.280195 0.08522,0.04538 0.260896,0.110084 0.364989,0.134384 0.128891,0.03029 0.422462,0.03938 0.550017,0.01717 0.612901,-0.106658 1.090689,-0.583466 1.231835,-1.223717 0.0324,-0.147014 0.03963,-0.43524 0.01522,-0.586123 C 13.056417,9.5328412 12.401435,8.9719187 11.633381,9.0107062 Z m -9.3350763,0.0057 c -0.2702636,-5.9e-4 -0.4663422,0.04823 -0.6919562,0.171548 -0.1571065,0.08587 -0.2721182,0.173637 -0.395403,0.308784 -0.202478,0.22197 -0.32486473,0.4650867 -0.39033542,0.7719708 -0.0270196,0.126684 -0.0318593,0.427329 -0.0101253,0.571829 0.055867,0.371448 0.25530728,0.736403 0.52973938,0.969251 0.2112195,0.179213 0.4522764,0.294282 0.7046301,0.33738 0.1249849,0.02141 0.3869133,0.02154 0.4993231,0 C 3.4339761,11.976684 3.9780205,11.057329 3.7303788,10.142882 3.602617,9.6711542 3.2393018,9.2681502 2.7925629,9.1021892 2.6215096,9.0386622 2.494743,9.0168752 2.2983073,9.0164162 Z" style="fill:#ac39ac;fill-rule:evenodd" id="motorcycle"/>
</svg>

<?xml version="1.0" encoding="UTF-8"?>
<svg version="1.1" viewBox="0 0 14 14" xmlns="http://www.w3.org/2000/svg">
<path d="m11.656 5.8256c0.29859 0.21006 0.47269 0.44148 0.55762 0.7348 0.02791 0.096441 0.02967 0.11625 0.03043 0.31451 6.72e-4 0.18248-0.0013 0.23033-0.02282 0.33166-0.04231 0.19888-0.12061 0.4211-0.21291 0.61472l-0.04055 0.088638-0.13941 0.00864c-0.50714 0.02973-0.91522 0.13267-1.2699 0.32308-0.7606 0.40837-1.2384 1.1756-1.4752 2.3645l-0.020273 0.09435-0.098852 0.10293c-0.054816 0.05578-0.12864 0.12289-0.16475 0.14868-0.32813 0.23418-0.79909 0.37432-1.4676 0.44031-0.30009 0.02968-0.50119 0.0355-1.4701 0.04575-0.56809 0.0061-1.036 0.0139-1.0392 0.01717-0.00311 0.0032-0.025085 0.0058-0.048159 0.0058-0.0503 0-0.046861 0.02197-0.01774-0.24017 0.04498-0.40518 0.039971-0.87532-0.012732-1.2152-0.15145-0.9776-0.68729-1.6194-1.5968-1.9129-0.39961-0.12895-0.75119-0.17545-1.351-0.18585l-0.38273-0.00864-0.025344-0.02859c-0.12784-0.15721-0.19333-0.39761-0.15715-0.5804 0.017104-0.086325 0.076164-0.21133 0.12674-0.2659l1.0774-1.2352c2.336-0.00835 2.9595 0.00427 5.1909 0.026406 0.12396 0.032996 0.68854 1.3087 0.74758 1.4146 0.031912 0.057253 0.076189 0.18358 0.086182 0.24589 0.00402 0.02531 0.00844 0.045746 0.010125 0.045746 0.015029 0 0.22325-0.093484 0.3295-0.14868 0.28433-0.14769 0.64107-0.72643 0.82145-0.9635 0.17177-2.281-2.6432-8.336 2.0351-0.58327zm-0.10899 2.3531c0.67998-0.052948 1.3494 0.22157 1.8249 0.7491 0.66115 0.73338 0.81661 1.8298 0.3878 2.7333-0.35655 0.75128-1.0613 1.2584-1.8503 1.3324-0.29608 0.02774-0.651-0.01504-0.93021-0.11438-0.69046-0.24562-1.2279-0.81508-1.4523-1.5382-0.20715-0.66725-0.12776-1.4099 0.21291-1.9985 0.39309-0.67919 1.0534-1.105 1.8072-1.1637zm-9.254 0.0057c0.27778 3.059e-4 0.35641 0.00923 0.55762 0.062902 0.90732 0.24215 1.5834 1.0369 1.7134 2.0128 0.023943 0.18007 0.024164 0.49589 0 0.66618-0.11542 0.81347-0.588 1.4873-1.2876 1.8413-0.22196 0.1123-0.50087 0.1969-0.75279 0.22588-0.14481 0.01665-0.45642 0.0044-0.60831-0.02288-0.97562-0.1761-1.7153-0.95421-1.8883-1.9871-0.032806-0.19532-0.036778-0.55372-0.007655-0.7491 0.078448-0.52535 0.30054-0.98182 0.65394-1.3524 0.34261-0.35925 0.74701-0.58174 1.242-0.67761 0.087467-0.017098 0.16337-0.020289 0.37766-0.020011zm9.3401 0.8263c-0.44966 0.02271-0.85626 0.25105-1.1304 0.63187-0.08549 0.11874-0.20032 0.35976-0.23826 0.50035-0.15436 0.57204-0.0045 1.1641 0.39794 1.5754 0.10193 0.10415 0.25334 0.22211 0.36245 0.2802 0.08522 0.04538 0.2609 0.11008 0.36499 0.13438 0.12889 0.03029 0.42246 0.03938 0.55002 0.01717 0.6129-0.10666 1.0907-0.58347 1.2318-1.2237 0.0324-0.14701 0.03963-0.43524 0.01522-0.58612-0.1307-0.80738-0.78568-1.3683-1.5537-1.3295zm-9.3351 0.0057c-0.27026-5.9e-4 -0.46634 0.04823-0.69196 0.17155-0.15711 0.08587-0.27212 0.17364-0.3954 0.30878-0.20248 0.22197-0.32486 0.46509-0.39034 0.77197-0.02702 0.12668-0.031859 0.42733-0.010125 0.57183 0.055867 0.37145 0.25531 0.7364 0.52974 0.96925 0.21122 0.17921 0.45228 0.29428 0.70463 0.33738 0.12498 0.02141 0.38691 0.02154 0.49932 0 0.88981-0.17047 1.4339-1.0898 1.1862-2.0043-0.12776-0.47173-0.49108-0.87473-0.93782-1.0407-0.17105-0.063527-0.29782-0.085314-0.49426-0.085773z" />
</svg>
